X:1
T:James Gibb editions
T:Si d'un petit de votre bien - Janequin
T:#
%%score [ 1 2 3 4 ]
L:1/8
Q:1/4=120
M:2/2
K:F
V:1 treble nm="Soprano" snm="S"
V:2 treble nm="Alto" snm="A"
V:3 treble-8 nm="Tenor" snm="T"
V:4 bass nm="Bass" snm="B"
V:1
"^Si d'un petit de votre bien""^Clément Janequin\n(1485-1558)" z8 | c4 c2 c2 | B2 B2 A3 G | %3
w: |Si d'un pe-|tit de vo- tre|
 (F3 G ABc)c | d3 c B2 A2 |[M:2/2] G2 F4 E2 | F4 z4 | c4 c2 c2 | B2 B2 A3 G | (F3 G ABc)c | %10
w: bien, * * * * Ma-|da- me, vous m'ê-|tes pro- pi-|ce,|Je ne vous|de- man- de plus|rien, * * * * Il|
 d3 c B2 A2 | G2 F4 E2 | F4 z2 F2 | FF F2 d2 dd | d2 c2 d2 f2 | e2 cc d2 cB | (f3 e/f/ e2) (d2- | %17
w: m'est sa- vou- reux|comme é- pi-|ce, Le|pe- tit trou, le pe- tit|trou par ou l'on|pis- se, Se- ra mon plai-|sir * * * à|
 dc c4) =B2 | c2 c2 A2 F2 | B4 A2 (G2- | GF F4) E2 | F4 z2 F2 | FF F2 d2 dd | d2 c2 d2 f2 | %24
w: * * * man-|der, Si ne res-|te qu'à de\-|* * * man-|der, Le|pe- tit trou, le pe- tit|trou par ou l'on|
 e2 cc d2 cB | (f3 e/f/ e2) (d2- | dc c4) =B2 | c2 c2 A2 F2 | B4 A2 (G2- | GF F4) E2 | F4 z2 c2 | %31
w: pis- se, Se- ra mon plai-|sir * * * à|* * * man-|der, Si ne res-|te qu'à de\-|* * * man-|der, Si|
 c2 c2 A2 A2 | d2 d2 c2 c2 | f3 e d2 c2 | B2 A2 G4 | F4 c4 | c2 c2 A2 A2 | d2 d2 c2 c2 | %38
w: ne res- te qu'à|de- man- der, Vo-|tre part n'y est|pas per- du-|e, Mais|c'est à moi de|re- gar- der, La|
 f3 e d2 c2 | B2 A2 G4 | F4 c2 cc | c2 c2 d2 e2 | f2 c2 f2 ff | (edcB A2) c2 | d2 f2 (e2 d2- | %45
w: re- quê- te bien|en- ten- du-|e, Or que je|puisse ê- tre ten-|du- e, Si dans mon|nid * * * * vous|ve- nez pon\- *|
 dc c4 =B2) | c4 c2 cc | G3 A B2 B2 | (F3 G ABcA | d4 c2 B2- | BAGF G4) | F4 c2 cc | G3 A B2 B2 | %53
w: |dre, A bien de-|man- der, bien ré-|pon\- * * * * *|||dre. A bien de-|man- der, bien ré-|
 (F3 G AB c2- | cB/A/ GA B3[Q:1/4=119] A/[Q:1/4=119]G/ | %55
w: pon\- * * * *||
[Q:1/4=118] F[Q:1/4=117]G[Q:1/4=114] A4[Q:1/4=111] G2- | %56
w: |
[Q:1/4=109] G2[Q:1/4=105] F4[Q:1/4=102] E2) |[Q:1/4=102] F16 |] %58
w: |dre.|
V:2
 z8 | z4 z2 F2 | F2 F2 F2 E2 | D2 D2 E4 | D2 z2 F3 E |[M:2/2] D2 D2 C2 CC | C2 C2 A,2 A,2 | %7
w: |Ma-|da- me, vous m'e-|tes pro- pi-|ce, vous m'ê-|tes pro- pi- ce, Je|ne vous de- man-|
 F,2 F,2 C2 F2 | F2 F2 F2 E2 | D2 D2 E4 | D2 F2 (F3 E) | (D4 C4) | C4 D2 DD | DD D2 F2 FF | %14
w: de plus rien, Il|m'est sa- vou- reux|comme é- pi-|ce, comme é\- *|pi\- *|ce, Le pe- tit,|pe- tit trou, le pe- tit,|
 FFFF B2 A2 | G2 A2 (DEFG | A2) D2 EFGE | (FEDC D4) | C4 z2 F2 | D2 B,2 F2 E2 | D2 B,2 C4- | %21
w: pe- tit trou par ou l'on|pis- se, Se\- * * *|* ra mon plai- sir à|man\- * * * *|der, Si|ne res- te qu'à|de- man- der,|
 C4 D2 DD | DD D2 F2 FF | FFFF B2 A2 | G2 A2 (DEFG | A2) D2 EFGE | (FEDC D4) | C4 z2 F2 | %28
w: * Le pe- tit,|pe- tit trou, le pe- tit,|pe- tit trou par ou I'on|pis- se, Se\- * * *|* ra mon plai- sir à|man\- * * * *|der, Si|
 D2 B,2 F2 E2 | D2 B,2 C2 C2 | C2 C2 A,2 A,2 | F,2 F,2 (C3 B,/A,/ | G,2) F2 F2 E2 | D3 E F3 C | %34
w: ne res- te qu'à|de- man- der, Si|ne res- te qu'à|de- man- der, * *|* Vo- tre part|n'y est pas per-|
 (DE F4 E2) | F2 A2 A2 A2 | A3 G F2 E2 | D2 F2 F2 E2 | D3 E F3 C | (DE F4 E2) | F4 A2 AA | %41
w: du\- * * *|e, Mais c'est à|moi de re- gar-|der, La re- quê-|te bien en- ten-|du\- * * *|e, Or que je|
 A2 A2 G2 G2 | F2 E2 A2 AA | G2 G2 F2 E2 | (FGAF G4 | FEDC D4) | C8 | z4 G2 GG | D3 E F2 F2 | %49
w: puisse ê- tre ten-|du- e, Si dans mon|nid vous ve- nez|pon\- * * * *||dre,|A bien de-|man- der, bien ré-|
 (B,CDE FE G2- | GF F4 E2 | F4) F,4 | z4 G2 GG | D3 E F2 F2 | E2 C2 z4 | A2 AG F2 E2 | D2 B,2 C4 | %57
w: pon\- * * * * * *||* dre,|A bien de-|man- der, bien ré-|pon- dre,|A bien de- man- der,|bien ré- pon-|
 C16 |] %58
w: dre.|
V:3
 z4 c4 | c2 c2 A2 A2 | d2 d2 (c3 B | AGAB cde)c | f3 e d2 c2 |[M:2/2][K:treble-8] B2 A2 G4 | %6
w: Si|d'un pe- tit de|vo- tre bien, *|* * * * * * * Ma-|da- me, vous m'ê-|tes pro- pi-|
 F4 z2 c2 | c2 c2 A2 A2 | d2 d2 (c3 B | AGAB cde)c | f3 e d2 c2 | B2 A2 G4 | F8 | z4 B2 BB | %14
w: ce, Je|ne vous de- man-|de plus rien, *|* * * * * * * Il|m'est sa- vou- reux|comme é- pi-|ce,|Le pe- tit|
 c2 A2 G2 F2 | c2 FF (BA/B/A)G | d4 c2 B2 | A4 G2 g2 | e2 c2 f2 d2 | B2 G2 c3 c | (BAGF G2) G2 | %21
w: trou par ou l'on|pis- se, Se- ra * * * mon|plai- sir à|man- der, Si|ne res- te, si|ne res- te qu'à|de\- * * * * man-|
 F8 | z4 B2 BB | B2 A2 G2 F2 | c2 FF (BA/B/A)G | d4 c2 B2 | A4 G2 g2 | e2 c2 f2 d2 | B2 G2 c3 c | %29
w: der,|Le pe- tit|trou par ou l'on|pis- se, Se- ra * * * mon|plai- sir à|man- der, Si|ne res- te, si|ne res- te qu'à|
 (BAGF) G4 | F2 z c c2 c2 | A2 A2 F4 | B4 A4 | z2 B2 BBAA | G2 F2 c4 | F4 f4 | f2 c2 d3 c | %37
w: de\- * * * man-|der, Si ne res-|te qu'à de-|man- der,|Vo- tre part n'y est|pas per- du-|e, Mais|c'est à moi de|
 B2 B2 A4 | z2 B2 BBAA | G2 F2 c4 | F4 F2 FF | F2 F2 B2 c2 | d2 A2 F2 FF | c2 c2 d2 A2 | %44
w: re- gar- der,|La re- quê- te bien|en- ten- du-|e, Or que je|puisse ê- tre ten-|du- e, Si dans mon|nid vous ve- nez|
 d4 c2 B2- | A4 G4 | c2 cc F2 F2 | c2 c2 GFGA | B3 A/G/ FGAF | GABG A2 G2 | d4 c4 | z2 f2 ff c2- | %52
w: pon\- * *|* dre,|A bien de- man- der,|bien ré- pon\- * * *|||* dre,|A bien de\-- man\-|
 cdef d2 d2- | d2 f2 ff c2- | cdef d2 d2 | z4 c2 cc | BAGF G4 | F16 |] %58
w: * der, bien ré- pon- dre,|* A bien de- man\-|* der, bien ré- pon- dre,|A bien de-|man- der, bien ré- pon-|dre.|
V:4
 C4 C2 C2 | A,2 A,2 F,2 F,2 | (B,,C,D,E, F,)G, A,2 | D,4 C,4 | B,,2 (B,,C,D,E,) F,2 | %5
w: Si d'un pe-|tit de vo- tre|bien, * * * * Ma- da-|me, vous|m'ê- tes * * * pro-|
[M:2/2] B,,4 C,4 | z2 C2 C2 C2 | A,2 A,2 F,2 F,2 | (B,,C,D,E, F,)G, A,2 | D,4 C,4 | %10
w: pi- ce,|Je ne vous|de- man- de plus|rien, * * * * Il m'est|sa- vou-|
 B,,2 (B,,C, D,E,) F,2 | (B,,4 C,4) | F,4 B,,2 B,,B,, | B,,B,,B,,B,, B,,4 | z8 | z8 | z8 | %17
w: reux comme * * * é-|pi\- *|ce, Le pe- tit|trou, le pe- tit trou,||||
 z4 z2 G,2 | A,4 D,4 | G,4 F,2 C,2 | (D,4 C,4) | F,4 B,,2 B,,B,, | B,,B,,B,,B,, B,,4 | z8 | z8 | %25
w: Si|ne res-|te qu'à de-|man\- *|der, Le pe- tit,|pe- tit, pe- tit trou,|||
 z8 | z4 z2 G,2 | A,4 D,4 | G,4 F,2 B,,2 | (D,4 C,4) | F,8- | F,8 | z8 | z8 | z8 | z8 | z8 | z8 | %38
w: |Si|ne res-|te qu'à de-|man\- *|der,||||||||
 z8 | z8 | z8 | z8 | z8 | z8 | z8 | z8 | z8 | z8 | z8 | z8 | z8 | z8 | C2 CC G,3 A, | B,2 B,2 F,4 | %54
w: ||||||||||||||A bien de- man- der,|bien ré- pon-|
 C4 G,2 G,G, | D,3 E, F,2 C,2 | D,8 | F,16 |] %58
w: dre, A bien de-|man- der, bien ré-|pon-|dre.|

